<?xml version="1.0" encoding="UTF-8"?>
<map version="1.10" tiledversion="1.12.2" orientation="orthogonal" renderorder="right-down" width="30" height="20" tilewidth="8" tileheight="8" infinite="0" nextlayerid="2" nextobjectid="9">
 <objectgroup id="1" name="objects">
  <object id="1" name="floor" x="0" y="128" width="240" height="32">
   <properties>
    <property name="kind" value="platform"/>
   </properties>
  </object>
  <object id="2" name="platform_mid" x="120" y="88" width="24" height="16">
   <properties>
    <property name="kind" value="platform"/>
   </properties>
  </object>
  <object id="3" name="door_to_catacombs_06" x="0" y="0" width="16" height="160">
   <properties>
    <property name="kind" value="door"/>
    <property name="target_room" value="catacombs_06"/>
    <property name="target_x" type="int" value="220"/>
    <property name="target_y" type="int" value="120"/>
   </properties>
  </object>
  <object id="4" name="door_to_catacombs_08" x="224" y="0" width="16" height="160">
   <properties>
    <property name="kind" value="door"/>
    <property name="target_room" value="catacombs_08"/>
    <property name="target_x" type="int" value="20"/>
    <property name="target_y" type="int" value="120"/>
   </properties>
  </object>
  <object id="5" name="door_to_catacombs_12" x="100" y="0" width="60" height="24">
   <properties>
    <property name="kind" value="door"/>
    <property name="target_room" value="catacombs_12"/>
    <property name="target_x" type="int" value="120"/>
    <property name="target_y" type="int" value="120"/>
   </properties>
  </object>
  <object id="6" name="spawn" x="20" y="120">
   <properties>
    <property name="kind" value="spawn"/>
   </properties>
   <point/>
  </object>
  <object id="7" name="zombie_1" x="60" y="120">
   <properties>
    <property name="kind" value="enemy"/>
    <property name="enemy_type" value="zombie"/>
   </properties>
   <point/>
  </object>
  <object id="8" name="zombie_2" x="170" y="120">
   <properties>
    <property name="kind" value="enemy"/>
    <property name="enemy_type" value="zombie"/>
   </properties>
   <point/>
  </object>
  <object id="9" name="medusa_head_1" x="220" y="110">
   <properties>
    <property name="kind" value="enemy"/>
    <property name="enemy_type" value="medusa_head"/>
    <property name="facing" type="int" value="-1"/>
   </properties>
   <point/>
  </object>
 </objectgroup>
</map>
