<?xml version="1.0" encoding="UTF-8"?>
<map version="1.10" tiledversion="1.12.2" orientation="orthogonal" renderorder="right-down" width="60" height="20" tilewidth="8" tileheight="8" infinite="0" nextlayerid="2" nextobjectid="13">
 <objectgroup id="1" name="objects">
  <object id="1" name="floor_left" x="0" y="128" width="208" height="32">
   <properties>
    <property name="kind" value="platform"/>
   </properties>
  </object>
  <object id="2" name="floor_right" x="288" y="128" width="192" height="32">
   <properties>
    <property name="kind" value="platform"/>
   </properties>
  </object>
  <object id="3" name="platform_bridge" x="224" y="104" width="48" height="16">
   <properties>
    <property name="kind" value="platform"/>
   </properties>
  </object>
  <object id="4" name="platform_high" x="320" y="80" width="48" height="16">
   <properties>
    <property name="kind" value="platform"/>
   </properties>
  </object>
  <object id="5" name="platform_low" x="80" y="96" width="48" height="16">
   <properties>
    <property name="kind" value="platform"/>
   </properties>
  </object>
  <object id="6" name="door_to_catacombs_03" x="0" y="0" width="16" height="160">
   <properties>
    <property name="kind" value="door"/>
    <property name="target_room" value="catacombs_03"/>
    <property name="target_x" type="int" value="220"/>
    <property name="target_y" type="int" value="120"/>
   </properties>
  </object>
  <object id="7" name="door_to_catacombs_05" x="464" y="0" width="16" height="160">
   <properties>
    <property name="kind" value="door"/>
    <property name="target_room" value="catacombs_05"/>
    <property name="target_x" type="int" value="20"/>
    <property name="target_y" type="int" value="280"/>
   </properties>
  </object>
  <object id="8" name="spawn" x="20" y="120">
   <properties>
    <property name="kind" value="spawn"/>
   </properties>
   <point/>
  </object>
  <object id="9" name="skeleton_1" x="40" y="120">
   <properties>
    <property name="kind" value="enemy"/>
    <property name="enemy_type" value="skeleton"/>
   </properties>
   <point/>
  </object>
  <object id="10" name="skeleton_2" x="100" y="88">
   <properties>
    <property name="kind" value="enemy"/>
    <property name="enemy_type" value="skeleton"/>
   </properties>
   <point/>
  </object>
  <object id="11" name="skeleton_3" x="340" y="72">
   <properties>
    <property name="kind" value="enemy"/>
    <property name="enemy_type" value="skeleton"/>
   </properties>
   <point/>
  </object>
  <object id="12" name="skeleton_4" x="400" y="120">
   <properties>
    <property name="kind" value="enemy"/>
    <property name="enemy_type" value="skeleton"/>
   </properties>
   <point/>
  </object>
  <object id="13" name="medusa_head_1" x="460" y="112">
   <properties>
    <property name="kind" value="enemy"/>
    <property name="enemy_type" value="medusa_head"/>
    <property name="facing" type="int" value="-1"/>
   </properties>
   <point/>
  </object>
  <object id="14" name="medusa_head_2" x="460" y="96">
   <properties>
    <property name="kind" value="enemy"/>
    <property name="enemy_type" value="medusa_head"/>
    <property name="facing" type="int" value="-1"/>
   </properties>
   <point/>
  </object>
 </objectgroup>
</map>
