{ "compressionlevel":-1,
 "height":20,
 "infinite":false,
 "layers":[
        {
         "draworder":"topdown",
         "id":1,
         "name":"objects",
         "objects":[
                {
                 "height":32,
                 "id":1,
                 "name":"floor",
                 "opacity":1,
                 "properties":[
                        {
                         "name":"kind",
                         "type":"string",
                         "value":"platform"
                        }],
                 "rotation":0,
                 "type":"",
                 "visible":true,
                 "width":240,
                 "x":0,
                 "y":128
                }, 
                {
                 "height":160,
                 "id":2,
                 "name":"door_to_catacombs_11",
                 "opacity":1,
                 "properties":[
                        {
                         "name":"kind",
                         "type":"string",
                         "value":"door"
                        }, 
                        {
                         "name":"target_room",
                         "type":"string",
                         "value":"catacombs_11"
                        }, 
                        {
                         "name":"target_x",
                         "type":"int",
                         "value":440
                        }, 
                        {
                         "name":"target_y",
                         "type":"int",
                         "value":120
                        }],
                 "rotation":0,
                 "type":"",
                 "visible":true,
                 "width":16,
                 "x":0,
                 "y":0
                }, 
                {
                 "height":160,
                 "id":3,
                 "name":"door_to_catacombs_16",
                 "opacity":1,
                 "properties":[
                        {
                         "name":"kind",
                         "type":"string",
                         "value":"door"
                        }, 
                        {
                         "name":"target_room",
                         "type":"string",
                         "value":"catacombs_16"
                        }, 
                        {
                         "name":"target_x",
                         "type":"int",
                         "value":20
                        }, 
                        {
                         "name":"target_y",
                         "type":"int",
                         "value":120
                        }],
                 "rotation":0,
                 "type":"",
                 "visible":true,
                 "width":16,
                 "x":224,
                 "y":0
                }, 
                {
                 "height":0,
                 "id":4,
                 "name":"spawn",
                 "opacity":1,
                 "point":true,
                 "properties":[
                        {
                         "name":"kind",
                         "type":"string",
                         "value":"spawn"
                        }],
                 "rotation":0,
                 "type":"",
                 "visible":true,
                 "width":0,
                 "x":120,
                 "y":120
                }],
         "opacity":1,
         "type":"objectgroup",
         "visible":true,
         "x":0,
         "y":0
        }],
 "nextlayerid":2,
 "nextobjectid":4,
 "orientation":"orthogonal",
 "properties":[
        {
         "name":"is_save_room",
         "type":"bool",
         "value":true
        }],
 "renderorder":"right-down",
 "tiledversion":"1.12.2",
 "tileheight":8,
 "tilesets":[],
 "tilewidth":8,
 "type":"map",
 "version":"1.10",
 "width":30
}