<?xml version="1.0" encoding="UTF-8"?>
<map version="1.10" tiledversion="1.12.2" orientation="orthogonal" renderorder="right-down" width="30" height="40" tilewidth="8" tileheight="8" infinite="0" nextlayerid="2" nextobjectid="18">
 <objectgroup id="1" name="objects">
  <object id="1" name="floor_bottom" x="0" y="288" width="240" height="32">
   <properties>
    <property name="kind" value="platform"/>
   </properties>
  </object>
  <object id="2" name="platform_a" x="16" y="256" width="48" height="16">
   <properties>
    <property name="kind" value="platform"/>
   </properties>
  </object>
  <object id="3" name="platform_b" x="36" y="224" width="48" height="16">
   <properties>
    <property name="kind" value="platform"/>
   </properties>
  </object>
  <object id="4" name="platform_c" x="16" y="192" width="48" height="16">
   <properties>
    <property name="kind" value="platform"/>
   </properties>
  </object>
  <object id="5" name="platform_d" x="36" y="160" width="48" height="16">
   <properties>
    <property name="kind" value="platform"/>
   </properties>
  </object>
  <object id="6" name="platform_e" x="16" y="128" width="48" height="16">
   <properties>
    <property name="kind" value="platform"/>
   </properties>
  </object>
  <object id="7" name="platform_f" x="36" y="96" width="48" height="16">
   <properties>
    <property name="kind" value="platform"/>
   </properties>
  </object>
  <object id="8" name="platform_g" x="16" y="64" width="48" height="16">
   <properties>
    <property name="kind" value="platform"/>
   </properties>
  </object>
  <object id="9" name="platform_top" x="0" y="32" width="120" height="16">
   <properties>
    <property name="kind" value="platform"/>
   </properties>
  </object>
  <object id="11" name="door_to_catacombs_04" x="0" y="256" width="16" height="64">
   <properties>
    <property name="kind" value="door"/>
    <property name="target_room" value="catacombs_04"/>
    <property name="target_x" type="int" value="440"/>
    <property name="target_y" type="int" value="120"/>
   </properties>
  </object>
  <object id="12" name="door_to_catacombs_06" x="0" y="0" width="120" height="32">
   <properties>
    <property name="kind" value="door"/>
    <property name="target_room" value="catacombs_06"/>
    <property name="target_x" type="int" value="160"/>
    <property name="target_y" type="int" value="120"/>
   </properties>
  </object>
  <object id="13" name="door_to_catacombs_10" x="224" y="140" width="16" height="64">
   <properties>
    <property name="kind" value="door"/>
    <property name="target_room" value="catacombs_10"/>
    <property name="target_x" type="int" value="20"/>
    <property name="target_y" type="int" value="120"/>
   </properties>
  </object>
  <object id="14" name="spawn" x="20" y="280">
   <properties>
    <property name="kind" value="spawn"/>
   </properties>
   <point/>
  </object>
  <object id="15" name="bat_1" x="60" y="240">
   <properties>
    <property name="kind" value="enemy"/>
    <property name="enemy_type" value="bat"/>
   </properties>
   <point/>
  </object>
  <object id="16" name="bat_2" x="100" y="150">
   <properties>
    <property name="kind" value="enemy"/>
    <property name="enemy_type" value="bat"/>
   </properties>
   <point/>
  </object>
  <object id="17" name="bat_3" x="60" y="70">
   <properties>
    <property name="kind" value="enemy"/>
    <property name="enemy_type" value="bat"/>
   </properties>
   <point/>
  </object>
  <object id="18" name="fleaman_1" x="40" y="248">
   <properties>
    <property name="kind" value="enemy"/>
    <property name="enemy_type" value="fleaman"/>
   </properties>
   <point/>
  </object>
  <object id="19" name="fleaman_2" x="60" y="152">
   <properties>
    <property name="kind" value="enemy"/>
    <property name="enemy_type" value="fleaman"/>
   </properties>
   <point/>
  </object>
 </objectgroup>
</map>
