<?xml version="1.0" encoding="UTF-8"?>
<map version="1.10" tiledversion="1.12.2" orientation="orthogonal" renderorder="right-down" width="30" height="20" tilewidth="8" tileheight="8" infinite="0" nextlayerid="2" nextobjectid="5">
 <objectgroup id="1" name="objects">
  <object id="1" name="floor" x="80" y="128" width="80" height="32">
   <properties>
    <property name="kind" value="platform"/>
   </properties>
  </object>
  <object id="2" name="door_to_catacombs_07" x="90" y="104" width="48" height="32">
   <properties>
    <property name="kind" value="door"/>
    <property name="target_room" value="catacombs_07"/>
    <property name="target_x" type="int" value="130"/>
    <property name="target_y" type="int" value="80"/>
   </properties>
  </object>
  <object id="3" name="spawn" x="150" y="120">
   <properties>
    <property name="kind" value="spawn"/>
   </properties>
   <point/>
  </object>
  <object id="4" name="skeleton_1" x="120" y="120">
   <properties>
    <property name="kind" value="enemy"/>
    <property name="enemy_type" value="skeleton"/>
   </properties>
   <point/>
  </object>
 </objectgroup>
</map>
