<?xml version="1.0" encoding="UTF-8"?>
<map version="1.10" tiledversion="1.12.2" orientation="orthogonal" renderorder="right-down" width="30" height="40" tilewidth="8" tileheight="8" infinite="0" nextlayerid="2" nextobjectid="14">
 <objectgroup id="1" name="objects">
  <object id="1" name="platform_top" x="80" y="32" width="64" height="16">
   <properties>
    <property name="kind" value="platform"/>
   </properties>
  </object>
  <object id="2" name="platform_a" x="40" y="64" width="40" height="16">
   <properties>
    <property name="kind" value="platform"/>
   </properties>
  </object>
  <object id="3" name="platform_b" x="100" y="96" width="40" height="16">
   <properties>
    <property name="kind" value="platform"/>
   </properties>
  </object>
  <object id="4" name="platform_c" x="40" y="128" width="40" height="16">
   <properties>
    <property name="kind" value="platform"/>
   </properties>
  </object>
  <object id="5" name="platform_d" x="100" y="160" width="40" height="16">
   <properties>
    <property name="kind" value="platform"/>
   </properties>
  </object>
  <object id="6" name="platform_e" x="40" y="192" width="40" height="16">
   <properties>
    <property name="kind" value="platform"/>
   </properties>
  </object>
  <object id="7" name="platform_f" x="100" y="224" width="40" height="16">
   <properties>
    <property name="kind" value="platform"/>
   </properties>
  </object>
  <object id="8" name="floor_bottom" x="0" y="256" width="240" height="32">
   <properties>
    <property name="kind" value="platform"/>
   </properties>
  </object>
  <object id="9" name="door_to_catacombs_11" x="80" y="8" width="64" height="32">
   <properties>
    <property name="kind" value="door"/>
    <property name="target_room" value="catacombs_11"/>
    <property name="target_x" type="int" value="188"/>
    <property name="target_y" type="int" value="120"/>
   </properties>
  </object>
  <object id="10" name="door_to_catacombs_15" x="224" y="224" width="16" height="48">
   <properties>
    <property name="kind" value="door"/>
    <property name="target_room" value="catacombs_15"/>
    <property name="target_x" type="int" value="20"/>
    <property name="target_y" type="int" value="120"/>
   </properties>
  </object>
  <object id="11" name="spawn" x="100" y="24">
   <properties>
    <property name="kind" value="spawn"/>
   </properties>
   <point/>
  </object>
  <object id="12" name="bat_1" x="60" y="90">
   <properties>
    <property name="kind" value="enemy"/>
    <property name="enemy_type" value="bat"/>
   </properties>
   <point/>
  </object>
  <object id="13" name="bat_2" x="120" y="155">
   <properties>
    <property name="kind" value="enemy"/>
    <property name="enemy_type" value="bat"/>
   </properties>
   <point/>
  </object>
  <object id="14" name="bat_3" x="60" y="215">
   <properties>
    <property name="kind" value="enemy"/>
    <property name="enemy_type" value="bat"/>
   </properties>
   <point/>
  </object>
  <object id="15" name="fleaman_1" x="100" y="88">
   <properties>
    <property name="kind" value="enemy"/>
    <property name="enemy_type" value="fleaman"/>
   </properties>
   <point/>
  </object>
  <object id="16" name="fleaman_2" x="40" y="184">
   <properties>
    <property name="kind" value="enemy"/>
    <property name="enemy_type" value="fleaman"/>
   </properties>
   <point/>
  </object>
 </objectgroup>
</map>
