<?xml version="1.0" encoding="UTF-8"?>
<map version="1.10" tiledversion="1.12.2" orientation="orthogonal" renderorder="right-down" width="30" height="20" tilewidth="8" tileheight="8" infinite="0" nextlayerid="2" nextobjectid="7">
 <objectgroup id="1" name="objects">
  <object id="1" name="floor" x="0" y="128" width="240" height="32">
   <properties>
    <property name="kind" value="platform"/>
   </properties>
  </object>
  <object id="2" name="ledge" x="88" y="96" width="64" height="32">
   <properties>
    <property name="kind" value="platform"/>
   </properties>
  </object>
  <object id="3" name="door_to_catacombs_01" x="224" y="0" width="16" height="160">
   <properties>
    <property name="kind" value="door"/>
    <property name="target_room" value="catacombs_01"/>
    <property name="target_x" type="int" value="16"/>
    <property name="target_y" type="int" value="120"/>
   </properties>
  </object>
  <object id="4" name="spawn" x="120" y="88">
   <properties>
    <property name="kind" value="spawn"/>
   </properties>
   <point/>
  </object>
  <object id="5" name="skeleton" x="104" y="88">
   <properties>
    <property name="kind" value="enemy"/>
    <property name="enemy_type" value="skeleton"/>
   </properties>
   <point/>
  </object>
  <object id="6" name="bat" x="232" y="88">
   <properties>
    <property name="kind" value="enemy"/>
    <property name="enemy_type" value="bat"/>
   </properties>
   <point/>
  </object>
 </objectgroup>
</map>
