<?xml version="1.0" encoding="UTF-8"?>
<map version="1.10" tiledversion="1.12.2" orientation="orthogonal" renderorder="right-down" width="30" height="20" tilewidth="8" tileheight="8" infinite="0" nextlayerid="2" nextobjectid="10">
 <objectgroup id="1" name="objects">
  <object id="1" name="floor" x="0" y="128" width="240" height="32">
   <properties>
    <property name="kind" value="platform"/>
   </properties>
  </object>
  <object id="2" name="ledge_left" x="16" y="88" width="48" height="16">
   <properties>
    <property name="kind" value="platform"/>
   </properties>
  </object>
  <object id="3" name="ledge_right" x="176" y="88" width="48" height="16">
   <properties>
    <property name="kind" value="platform"/>
   </properties>
  </object>
  <object id="4" name="door_to_catacombs_07" x="0" y="0" width="16" height="160">
   <properties>
    <property name="kind" value="door"/>
    <property name="target_room" value="catacombs_07"/>
    <property name="target_x" type="int" value="220"/>
    <property name="target_y" type="int" value="120"/>
   </properties>
  </object>
  <object id="5" name="door_to_catacombs_11" x="224" y="0" width="16" height="160">
   <properties>
    <property name="kind" value="door"/>
    <property name="target_room" value="catacombs_11"/>
    <property name="target_x" type="int" value="20"/>
    <property name="target_y" type="int" value="120"/>
   </properties>
  </object>
  <object id="6" name="spawn" x="20" y="120">
   <properties>
    <property name="kind" value="spawn"/>
   </properties>
   <point/>
  </object>
  <object id="7" name="skeleton_1" x="40" y="120">
   <properties>
    <property name="kind" value="enemy"/>
    <property name="enemy_type" value="skeleton"/>
   </properties>
   <point/>
  </object>
  <object id="8" name="skeleton_2" x="120" y="120">
   <properties>
    <property name="kind" value="enemy"/>
    <property name="enemy_type" value="skeleton"/>
   </properties>
   <point/>
  </object>
  <object id="9" name="skeleton_3" x="200" y="120">
   <properties>
    <property name="kind" value="enemy"/>
    <property name="enemy_type" value="skeleton"/>
   </properties>
   <point/>
  </object>
  <object id="10" name="fleaman_1" x="30" y="80">
   <properties>
    <property name="kind" value="enemy"/>
    <property name="enemy_type" value="fleaman"/>
   </properties>
   <point/>
  </object>
  <object id="11" name="fleaman_2" x="190" y="80">
   <properties>
    <property name="kind" value="enemy"/>
    <property name="enemy_type" value="fleaman"/>
   </properties>
   <point/>
  </object>
 </objectgroup>
</map>
