{ "compressionlevel":-1,
 "height":20,
 "infinite":false,
 "layers":[
        {
         "draworder":"topdown",
         "id":1,
         "name":"objects",
         "objects":[
                {
                 "height":32,
                 "id":1,
                 "name":"floor",
                 "opacity":1,
                 "properties":[
                        {
                         "name":"kind",
                         "type":"string",
                         "value":"platform"
                        }],
                 "rotation":0,
                 "type":"",
                 "visible":true,
                 "width":240,
                 "x":0,
                 "y":128
                }, 
                {
                 "height":160,
                 "id":2,
                 "name":"door_to_catacombs_17",
                 "opacity":1,
                 "properties":[
                        {
                         "name":"kind",
                         "type":"string",
                         "value":"door"
                        }, 
                        {
                         "name":"target_room",
                         "type":"string",
                         "value":"catacombs_17"
                        }, 
                        {
                         "name":"target_x",
                         "type":"int",
                         "value":440
                        }, 
                        {
                         "name":"target_y",
                         "type":"int",
                         "value":120
                        }],
                 "rotation":0,
                 "type":"",
                 "visible":true,
                 "width":16,
                 "x":0,
                 "y":0
                }, 
                {
                 "height":0,
                 "id":3,
                 "name":"spawn",
                 "opacity":1,
                 "point":true,
                 "properties":[
                        {
                         "name":"kind",
                         "type":"string",
                         "value":"spawn"
                        }],
                 "rotation":0,
                 "type":"",
                 "visible":true,
                 "width":0,
                 "x":120,
                 "y":120
                },
                {
                 "height":24,
                 "id":4,
                 "name":"relic_double",
                 "opacity":1,
                 "properties":[
                        {
                         "name":"kind",
                         "type":"string",
                         "value":"relic"
                        },
                        {
                         "name":"relic_type",
                         "type":"string",
                         "value":"double"
                        }],
                 "rotation":0,
                 "type":"",
                 "visible":true,
                 "width":32,
                 "x":104,
                 "y":104
                }],
         "opacity":1,
         "type":"objectgroup",
         "visible":true,
         "x":0,
         "y":0
        }],
 "nextlayerid":2,
 "nextobjectid":5,
 "orientation":"orthogonal",
 "renderorder":"right-down",
 "tiledversion":"1.12.2",
 "tileheight":8,
 "tilesets":[],
 "tilewidth":8,
 "type":"map",
 "version":"1.10",
 "width":30
}