{ "compressionlevel":-1,
 "height":20,
 "infinite":false,
 "layers":[
        {
         "draworder":"topdown",
         "id":1,
         "name":"objects",
         "objects":[
                {
                 "height":32,
                 "id":1,
                 "name":"floor",
                 "opacity":1,
                 "properties":[
                        {
                         "name":"kind",
                         "type":"string",
                         "value":"platform"
                        }],
                 "rotation":0,
                 "type":"",
                 "visible":true,
                 "width":240,
                 "x":0,
                 "y":128
                }, 
                {
                 "height":32,
                 "id":2,
                 "name":"ledge",
                 "opacity":1,
                 "properties":[
                        {
                         "name":"kind",
                         "type":"string",
                         "value":"platform"
                        }],
                 "rotation":0,
                 "type":"",
                 "visible":true,
                 "width":64,
                 "x":88,
                 "y":96
                }, 
                {
                 "height":160,
                 "id":3,
                 "name":"door_to_sandbox_01",
                 "opacity":1,
                 "properties":[
                        {
                         "name":"kind",
                         "type":"string",
                         "value":"door"
                        }, 
                        {
                         "name":"target_room",
                         "type":"string",
                         "value":"sandbox_01"
                        }, 
                        {
                         "name":"target_x",
                         "type":"int",
                         "value":40
                        },
                        {
                         "name":"target_y",
                         "type":"int",
                         "value":120
                        }],
                 "rotation":0,
                 "type":"",
                 "visible":true,
                 "width":16,
                 "x":224,
                 "y":0
                }, 
                {
                 "height":0,
                 "id":4,
                 "name":"spawn",
                 "opacity":1,
                 "point":true,
                 "properties":[
                        {
                         "name":"kind",
                         "type":"string",
                         "value":"spawn"
                        }],
                 "rotation":0,
                 "type":"",
                 "visible":true,
                 "width":0,
                 "x":120,
                 "y":88
                }, 
                {
                 "height":0,
                 "id":5,
                 "name":"skeleton",
                 "opacity":1,
                 "point":true,
                 "properties":[
                        {
                         "name":"enemy_type",
                         "type":"string",
                         "value":"skeleton"
                        }, 
                        {
                         "name":"kind",
                         "type":"string",
                         "value":"enemy"
                        }],
                 "rotation":0,
                 "type":"",
                 "visible":true,
                 "width":0,
                 "x":104,
                 "y":88
                }, 
                {
                 "height":0,
                 "id":6,
                 "name":"bat",
                 "opacity":1,
                 "point":true,
                 "properties":[
                        {
                         "name":"enemy_type",
                         "type":"string",
                         "value":"bat"
                        }, 
                        {
                         "name":"kind",
                         "type":"string",
                         "value":"enemy"
                        }],
                 "rotation":0,
                 "type":"",
                 "visible":true,
                 "width":0,
                 "x":232,
                 "y":88
                }],
         "opacity":1,
         "type":"objectgroup",
         "visible":true,
         "x":0,
         "y":0
        }],
 "nextlayerid":2,
 "nextobjectid":7,
 "orientation":"orthogonal",
 "renderorder":"right-down",
 "tiledversion":"1.12.2",
 "tileheight":8,
 "tilesets":[],
 "tilewidth":8,
 "type":"map",
 "version":"1.10",
 "width":30
}